X: 30810
T: Otter's Holt, The
R: reel
M: 4/4
K: Aminor
(3Bcd|:eAAG EDEA|G3E GAcd|eAAG EDEG|AcBG A2 (3Bcd|
eAAG EDEA|G3E GAcd|eage decd|1 eAAG A3d:|2 eAAG A3B||
|:c2 ecGc e2|g3e dcAB|c2 ecGc e2|g3e dfed|
c2 ecGc e2|g3e decd|eAAG EDEG|1 AcBG A3B:|2 AcBG A3d||

